X: 4329
T: ANVIL CHORUS. (il Trovatore.)
%R: air, march
B: James Kerr "Merry Melodies" v.4 p.35 #329
Z: 2016 John Chambers <jc:trillian.mit.edu>
M: C
L: 1/8
K: D
|:!f!\
f4 f3f | f3e d3B | A3c e3g | (f4 d2)z2 |\
f4 f3f | f3e d3B | A3c e3g | f2d2 f2z2 |
d2z2 e2z2 | c2d2 B2c2 | F2z2 z>^AB>c | d2d2 z>cd>e |\
f2f2 z>ef>g | a6 [c2E2] | [d2D2]z2 z4 |]

%%sep 1 1 500
%%sep 1 1 500

